lib/svg/git-branch.svg

<svg xmlns="http://www.w3.org/2000/svg" width="10" height="16" viewBox="0 0 10 16"><path d="M10 5c0-1.11-.89-2-2-2a1.993 1.993 0 0 0-1 3.72v.3c-.02.52-.23.98-.63 1.38-.4.4-.86.61-1.38.63-.83.02-1.48.16-2 .45V4.72a1.993 1.993 0 0 0-1-3.72C.88 1 0 1.89 0 3a2 2 0 0 0 1 1.72v6.56c-.59.35-1 .99-1 1.72 0 1.11.89 2 2 2 1.11 0 2-.89 2-2 0-.53-.2-1-.53-1.36.09-.06.48-.41.59-.47.25-.11.56-.17.94-.17 1.05-.05 1.95-.45 2.75-1.25S8.95 7.77 9 6.73h-.02C9.59 6.37 10 5.73 10 5zM2 1.8c.66 0 1.2.55 1.2 1.2 0 .65-.55 1.2-1.2 1.2C1.35 4.2.8 3.65.8 3c0-.65.55-1.2 1.2-1.2zm0 12.41c-.66 0-1.2-.55-1.2-1.2 0-.65.55-1.2 1.2-1.2.65 0 1.2.55 1.2 1.2 0 .65-.55 1.2-1.2 1.2zm6-8c-.66 0-1.2-.55-1.2-1.2 0-.65.55-1.2 1.2-1.2.65 0 1.2.55 1.2 1.2 0 .65-.55 1.2-1.2 1.2z"/></svg>

<?xml version="1.0" encoding="UTF-8" standalone="no"?>
<svg width="10px" height="16px" viewBox="0 0 10 16" version="1.1" xmlns="http://www.w3.org/2000/svg" xmlns:xlink="http://www.w3.org/1999/xlink">
    <!-- Generator: Sketch 3.8.3 (29802) - http://www.bohemiancoding.com/sketch -->
    <title>git-branch</title>
    <desc>Created with Sketch.</desc>
    <defs></defs>
    <g id="Octicons" stroke="none" stroke-width="1" fill="none" fill-rule="evenodd">
        <g id="git-branch" fill="#000000">
            <path d="M10,5 C10,3.89 9.11,3 8,3 C6.89,3 6,3.89 6,5 C6,5.73 6.41,6.38 7,6.72 L7,7.02 C6.98,7.54 6.77,8 6.37,8.4 C5.97,8.8 5.51,9.01 4.99,9.03 C4.16,9.05 3.51,9.19 2.99,9.48 L2.99,4.72 C3.58,4.38 3.99,3.74 3.99,3 C3.99,1.89 3.1,1 1.99,1 C0.88,1 0,1.89 0,3 C0,3.73 0.41,4.38 1,4.72 L1,11.28 C0.41,11.63 0,12.27 0,13 C0,14.11 0.89,15 2,15 C3.11,15 4,14.11 4,13 C4,12.47 3.8,12 3.47,11.64 C3.56,11.58 3.95,11.23 4.06,11.17 C4.31,11.06 4.62,11 5,11 C6.05,10.95 6.95,10.55 7.75,9.75 C8.55,8.95 8.95,7.77 9,6.73 L8.98,6.73 C9.59,6.37 10,5.73 10,5 L10,5 Z M2,1.8 C2.66,1.8 3.2,2.35 3.2,3 C3.2,3.65 2.65,4.2 2,4.2 C1.35,4.2 0.8,3.65 0.8,3 C0.8,2.35 1.35,1.8 2,1.8 L2,1.8 Z M2,14.21 C1.34,14.21 0.8,13.66 0.8,13.01 C0.8,12.36 1.35,11.81 2,11.81 C2.65,11.81 3.2,12.36 3.2,13.01 C3.2,13.66 2.65,14.21 2,14.21 L2,14.21 Z M8,6.21 C7.34,6.21 6.8,5.66 6.8,5.01 C6.8,4.36 7.35,3.81 8,3.81 C8.65,3.81 9.2,4.36 9.2,5.01 C9.2,5.66 8.65,6.21 8,6.21 L8,6.21 Z" id="Shape"></path>
        </g>
    </g>
</svg>
